packages/core/src/svgs/tokens/branded/CUMMIES.svg

<svg width="24" height="24" viewBox="0 0 24 24" fill="none" xmlns="http://www.w3.org/2000/svg">
<path d="M14.1125 6.37502H10.75L11.6125 3.87503H10.0312L5.43749 15.125H7.06873L8.24998 12.625H11.6625L10.5124 15.2937L8.10623 16.9999H2.91875L2 15.2937L6.56248 3.70628L8.87497 2.00003H14.1125L15.125 3.70628L14.1125 6.37502Z" fill="url(#paint0_linear_364_9003)"/>
<path fill-rule="evenodd" clip-rule="evenodd" d="M18.6937 17.9063L16.8937 18.8188L17.8062 20.1937L17.0187 22H13.7625L14.8125 19.5H13.1875L12.1812 22H8.875L14.55 8.25003H20.8125L22 10.0563L18.6937 17.9063ZM14.55 16.4063C14.5249 16.2625 14.5 16.15 14.5063 16.0875C14.5312 15.8938 14.55 15.8501 14.8812 15.6875C14.5938 15.5625 14.65 15.2062 14.7187 15.05C14.5375 15.0938 14.125 15.225 13.8812 15.4063C13.8 14.6688 14.4125 14.3188 14.7313 14.2313C14.6562 14.1125 14.6375 13.5562 15.1625 12.2626C15.6875 10.975 17.0563 10.3001 17.6751 10.1251C18.0125 10.7188 18.5562 12.2251 18.0312 13.5125C17.5062 14.8063 17.0938 15.175 16.9562 15.2001C17.1312 15.5001 17.3375 16.2063 16.7562 16.6499C16.6789 16.3402 16.5523 16.0447 16.3812 15.775C16.3187 15.9313 16.1125 16.2187 15.8062 16.0875C15.9375 16.45 15.9249 16.4938 15.8062 16.6499C15.7625 16.7 15.6687 16.7563 15.5437 16.8375C15.2812 16.9938 14.9 17.225 14.625 17.625C14.6818 17.2178 14.6563 16.8034 14.55 16.4063Z" fill="url(#paint1_linear_364_9003)"/>
<defs>
<linearGradient id="paint0_linear_364_9003" x1="6.64284" y1="3.78574" x2="17.1785" y2="19.8571" gradientUnits="userSpaceOnUse">
<stop stop-color="#F000E1"/>
<stop offset="0.38" stop-color="#FD00B3"/>
<stop offset="0.74" stop-color="#FF00AA"/>
<stop offset="1" stop-color="#D517D1"/>
</linearGradient>
<linearGradient id="paint1_linear_364_9003" x1="6.64287" y1="3.78575" x2="17.1785" y2="19.8571" gradientUnits="userSpaceOnUse">
<stop stop-color="#F000E1"/>
<stop offset="0.38" stop-color="#FD00B3"/>
<stop offset="0.74" stop-color="#FF00AA"/>
<stop offset="1" stop-color="#D517D1"/>
</linearGradient>
</defs>
</svg>

<svg xmlns="http://www.w3.org/2000/svg" width="24" height="24" fill="none" viewBox="0 0 24 24">
    <path fill="url(#CUMMIES__a)" d="M14.113 6.375H10.75l.863-2.5H10.03l-4.594 11.25H7.07l1.181-2.5h3.412l-1.15 2.669L8.106 17H2.92L2 15.294 6.562 3.706 8.875 2h5.238l1.012 1.706z"/>
    <path fill="url(#CUMMIES__b)" fill-rule="evenodd" d="m18.694 17.906-1.8.913.912 1.375L17.02 22h-3.256l1.05-2.5h-1.626L12.182 22H8.875L14.55 8.25h6.262L22 10.056zm-4.144-1.5c-.025-.143-.05-.256-.044-.319.025-.193.044-.237.375-.4-.287-.124-.231-.48-.162-.637-.181.044-.594.175-.838.356-.081-.737.531-1.087.85-1.175-.075-.118-.094-.675.431-1.968.525-1.288 1.894-1.963 2.513-2.138.337.594.881 2.1.356 3.387-.525 1.294-.937 1.663-1.075 1.688.175.3.381 1.006-.2 1.45a3 3 0 0 0-.375-.875c-.062.156-.268.444-.575.312.132.363.119.407 0 .563-.043.05-.137.106-.262.188-.263.156-.644.387-.919.787a3.1 3.1 0 0 0-.075-1.219" clip-rule="evenodd"/>
    <defs>
        <linearGradient id="CUMMIES__a" x1="6.643" x2="17.178" y1="3.786" y2="19.857" gradientUnits="userSpaceOnUse">
            <stop stop-color="#F000E1"/>
            <stop offset=".38" stop-color="#FD00B3"/>
            <stop offset=".74" stop-color="#F0A"/>
            <stop offset="1" stop-color="#D517D1"/>
        </linearGradient>
        <linearGradient id="CUMMIES__b" x1="6.643" x2="17.178" y1="3.786" y2="19.857" gradientUnits="userSpaceOnUse">
            <stop stop-color="#F000E1"/>
            <stop offset=".38" stop-color="#FD00B3"/>
            <stop offset=".74" stop-color="#F0A"/>
            <stop offset="1" stop-color="#D517D1"/>
        </linearGradient>
    </defs>
</svg>
